src/lib/packages/icons/src/assets/line/rotate-right.svg

<svg width="24" height="24" viewBox="0 0 24 24" fill="none" xmlns="http://www.w3.org/2000/svg">
<path d="M21.75 4V9C21.75 9.414 21.414 9.75 21 9.75H16C15.586 9.75 15.25 9.414 15.25 9C15.25 8.586 15.586 8.25 16 8.25H19.3301C17.9401 5.524 15.123 3.75 12 3.75C7.451 3.75 3.75 7.451 3.75 12C3.75 16.549 7.451 20.25 12 20.25C15.153 20.25 17.9839 18.494 19.3879 15.667C19.5719 15.297 20.021 15.1431 20.394 15.3291C20.764 15.5141 20.9159 15.963 20.7319 16.334C19.0729 19.675 15.727 21.751 12.001 21.751C6.62498 21.751 2.25098 17.377 2.25098 12.001C2.25098 6.62498 6.62498 2.25098 12.001 2.25098C15.398 2.25098 18.497 4.02194 20.251 6.81494V4C20.251 3.586 20.587 3.25 21.001 3.25C21.415 3.25 21.75 3.586 21.75 4Z" fill="currentColor"/>
</svg>

<svg xmlns="http://www.w3.org/2000/svg" width="24" height="24" fill="none"><path fill="currentColor" d="M21.75 4v5a.75.75 0 0 1-.75.75h-5a.75.75 0 0 1 0-1.5h3.33A8.24 8.24 0 0 0 12 3.75c-4.549 0-8.25 3.701-8.25 8.25 0 4.549 3.701 8.25 8.25 8.25a8.202 8.202 0 0 0 7.388-4.583.75.75 0 1 1 1.344.667A9.694 9.694 0 0 1 12 21.751c-5.376 0-9.75-4.374-9.75-9.75s4.374-9.75 9.75-9.75a9.754 9.754 0 0 1 8.25 4.564V4a.75.75 0 0 1 1.499 0Z"/></svg>
